svgs/rrb_je_me_testbook.svg

<svg width="192" height="192" viewBox="0 0 192 192" fill="none" xmlns="http://www.w3.org/2000/svg">
<path d="M160.216 24H31.7838C27.5027 24 24 27.5027 24 31.7838V160.216C24 164.497 27.5027 168 31.7838 168H160.216C164.497 168 168 164.497 168 160.216V31.7838C168 27.5027 164.497 24 160.216 24Z" stroke="black" stroke-width="12" stroke-linecap="round" stroke-linejoin="round"/>
<path d="M135.319 131.583C135.319 136.093 130.528 138.991 126.533 136.897L98.2928 122.091C96.5481 121.176 94.4656 121.176 92.7209 122.091L64.4809 136.897C60.4858 138.991 55.6949 136.093 55.6949 131.583V79.3828C55.6949 77.3815 56.6928 75.5119 58.3556 74.398L92.1675 51.7473C94.188 50.3938 96.8257 50.3938 98.8462 51.7473L132.658 74.398C134.321 75.5119 135.319 77.3815 135.319 79.3828V131.583Z" stroke="black" stroke-width="12" stroke-linecap="round" stroke-linejoin="round"/>
<path d="M95.5068 49.5103V120.631" stroke="black" stroke-width="12" stroke-linecap="round" stroke-linejoin="round"/>
</svg>

<svg width="192" height="192" viewBox="0 0 192 192" fill="none" xmlns="http://www.w3.org/2000/svg"><path d="M160.216 24H31.784C27.503 24 24 27.503 24 31.784v128.432c0 4.281 3.503 7.784 7.784 7.784h128.432c4.281 0 7.784-3.503 7.784-7.784V31.784c0-4.281-3.503-7.784-7.784-7.784Z" stroke="#000" stroke-width="12" stroke-linecap="round" stroke-linejoin="round"/><path d="M135.319 131.583c0 4.51-4.791 7.408-8.786 5.314l-28.24-14.806a5.998 5.998 0 0 0-5.572 0l-28.24 14.806c-3.995 2.094-8.786-.804-8.786-5.314v-52.2a6 6 0 0 1 2.66-4.985l33.813-22.65a6 6 0 0 1 6.678 0l33.812 22.65a6 6 0 0 1 2.661 4.985v52.2ZM95.507 49.51v71.121" stroke="#000" stroke-width="12" stroke-linecap="round" stroke-linejoin="round"/></svg>
